SVG_Azure_All/Test Base for Microsoft 365.svg

<?xml version="1.0" encoding="UTF-8" standalone="no"?>
<!-- Generated by Microsoft Visio, SVG Export Test Base for Microsoft 365.svg Page-1 -->

<svg
   xmlns:dc="http://purl.org/dc/elements/1.1/"
   xmlns:cc="http://creativecommons.org/ns#"
   xmlns:rdf="http://www.w3.org/1999/02/22-rdf-syntax-ns#"
   xmlns:svg="http://www.w3.org/2000/svg"
   xmlns="http://www.w3.org/2000/svg"
   xmlns:sodipodi="http://sodipodi.sourceforge.net/DTD/sodipodi-0.dtd"
   xmlns:inkscape="http://www.inkscape.org/namespaces/inkscape"
   width="0.7873624in"
   height="0.55149215in"
   viewBox="0 0 56.690001 39.707288"
   xml:space="preserve"
   class="st6"
   version="1.1"
   id="svg102"
   sodipodi:docname="Test Base for Microsoft 365.svg"
   style="font-size:12px;overflow:visible;color-interpolation-filters:sRGB;fill:none;fill-rule:evenodd;stroke-linecap:square;stroke-miterlimit:3"
   inkscape:version="0.92.5 (2060ec1f9f, 2020-04-08)"><metadata
   id="metadata106"><rdf:RDF><cc:Work
       rdf:about=""><dc:format>image/svg+xml</dc:format><dc:type
         rdf:resource="http://purl.org/dc/dcmitype/StillImage" /></cc:Work></rdf:RDF></metadata><sodipodi:namedview
   pagecolor="#ffffff"
   bordercolor="#666666"
   borderopacity="1"
   objecttolerance="10"
   gridtolerance="10"
   guidetolerance="10"
   inkscape:pageopacity="0"
   inkscape:pageshadow="2"
   inkscape:window-width="640"
   inkscape:window-height="480"
   id="namedview104"
   showgrid="false"
   inkscape:zoom="1.6433259"
   inkscape:cx="37.795396"
   inkscape:cy="26.466608"
   inkscape:window-x="0"
   inkscape:window-y="0"
   inkscape:window-maximized="0"
   inkscape:current-layer="svg102" />
	<style
   type="text/css"
   id="style2">
	<![CDATA[
		.st1 {fill:url(#grad0-6);stroke:none;stroke-linecap:butt;stroke-width:34}
		.st2 {fill:url(#grad0-10);stroke:none;stroke-linecap:butt;stroke-width:34}
		.st3 {fill:#ffffff;stroke:none;stroke-linecap:butt;stroke-width:34}
		.st4 {fill:#e6e6e6;stroke:none;stroke-linecap:butt;stroke-width:34}
		.st5 {fill:#e6e6e6;fill-opacity:0.5;stroke:none;stroke-linecap:butt;stroke-width:34}
		.st6 {fill:none;fill-rule:evenodd;font-size:12px;overflow:visible;stroke-linecap:square;stroke-miterlimit:3}
	]]>
	</style>

	<defs
   id="Patterns_And_Gradients">
		<linearGradient
   id="grad0-6"
   x1="0"
   y1="81.265235"
   x2="47.44482"
   y2="81.265235"
   gradientTransform="scale(1.1948617,0.83691691)"
   gradientUnits="userSpaceOnUse">
			<stop
   offset="0"
   stop-color="#0078d4"
   stop-opacity="1"
   id="stop4" />
			<stop
   offset="0.815"
   stop-color="#5ea0ef"
   stop-opacity="1"
   id="stop6" />
		</linearGradient>
		<linearGradient
   id="grad0-10"
   x1="0.21073021"
   y1="88.874306"
   x2="21.164918"
   y2="88.874306"
   gradientTransform="scale(1.0196685,0.98071089)"
   gradientUnits="userSpaceOnUse">
			<stop
   offset="0"
   stop-color="#50e6ff"
   stop-opacity="1"
   id="stop9" />
			<stop
   offset="1"
   stop-color="#9cebff"
   stop-opacity="1"
   id="stop11" />
		</linearGradient>
	</defs>
	<g
   id="g100"
   transform="translate(-34,-33.996666)">
		<title
   id="title15">Page-1</title>
		<g
   id="group743-1"
   transform="translate(34,-34.0157)">
			<title
   id="title17">Test Base for Microsoft 365</title>
			<g
   id="group744-2">
				<title
   id="title19">Sheet.744</title>
				<g
   id="shape745-3">
					<title
   id="title21">Sheet.745</title>
					<path
   d="M 56.69,95.28 A 12.7304,12.5759 -180 0 0 45.65,83.18 16.0534,15.8585 -180 0 0 29.11,68.02 16.4745,16.2745 -180 0 0 13.36,78.62 15.1982,15.0137 -180 0 0 0,93.07 15.4234,15.2362 -180 0 0 15.96,107.71 c 0.48,0 0.95,-0.02 1.41,-0.06 h 25.85 a 2.50039,2.47004 -180 0 0 0.68,-0.1 12.8871,12.7307 -180 0 0 12.79,-12.27 z"
   class="st1"
   id="path23"
   inkscape:connector-curvature="0"
   style="fill:url(#grad0-6);stroke:none;stroke-width:34;stroke-linecap:butt" />
				</g>
				<g
   id="shape746-7"
   transform="translate(17.5909,-8.67092)">
					<title
   id="title26">Sheet.746</title>
					<path
   d="M 20.8,107.71 H 1 c -0.63,0 -1,-1 -0.65,-1.51 L 7.16,96.38 A 0.767091,0.757779 -180 0 0 7.297097,95.941456 L 7.3,89.44 A 0.391706,0.386951 -180 0 0 6.908294,89.053049 L 6.56,89.05 A 0.780148,0.770677 0 0 1 5.776588,88.279323 L 5.77,87.94 A 0.783412,0.773902 0 0 1 6.553412,87.166098 L 15.24,87.16 a 0.783412,0.773902 0 0 1 0.783412,0.773902 L 16.02,88.29 a 0.780148,0.770677 0 0 1 -0.783412,0.770677 L 14.87,89.06 a 0.391706,0.386951 -180 0 0 -0.391706,0.386951 L 14.48,95.95 a 0.793205,0.783576 -180 0 0 0.137097,0.438544 L 21.44,106.21 c 0.36,0.5 -0.01,1.5 -0.64,1.5 z"
   class="st2"
   id="path28"
   inkscape:connector-curvature="0"
   style="fill:url(#grad0-10);stroke:none;stroke-width:34;stroke-linecap:butt" />
				</g>
				<g
   id="shape747-11"
   transform="translate(21.2442,-10.596)">
					<title
   id="title31">Sheet.747</title>
					<path
   d="m 0.03,107.05 4.91,-7.08 a 1.80838,1.78642 -180 0 0 0.32,-1 V 96.12 A 0.571238,0.564303 0 0 1 5.818181,95.555697 L 8.61,95.55 a 0.574502,0.567528 0 0 1 0.571238,0.564303 L 9.18,99.16 a 1.18817,1.17375 -180 0 0 0.21,0.68 l 5.02,7.21 a 0.427612,0.422421 0 0 1 -0.352535,0.66104 L 0.38,107.71 a 0.427612,0.422421 0 0 1 -0.352535,-0.66104 z"
   class="st3"
   id="path33"
   inkscape:connector-curvature="0"
   style="fill:#ffffff;stroke:none;stroke-width:34;stroke-linecap:butt" />
				</g>
				<g
   id="group748-13"
   transform="translate(39.6733,-21.1759)">
					<title
   id="title36">Sheet.748</title>
					<g
   id="shape749-14">
						<title
   id="title38">Sheet.749</title>
						<path
   d="m 4.45,106.25 v 1.46 H 0.33 A 0.326422,0.322459 0 0 1 0.003578,107.38754 L 0,105.93 a 0.326422,0.322459 0 0 1 0.326422,-0.32246 L 3.79,105.61 a 0.652843,0.644918 0 0 1 0.652843,0.64492 z"
   class="st4"
   id="path40"
   inkscape:connector-curvature="0"
   style="fill:#e6e6e6;stroke:none;stroke-width:34;stroke-linecap:butt" />
					</g>
					<g
   id="shape750-16">
						<title
   id="title43">Sheet.750</title>
						<path
   d="m 4.45,106.25 v 1.46 H 0.33 A 0.326422,0.322459 0 0 1 0.003578,107.38754 L 0,105.93 a 0.326422,0.322459 0 0 1 0.326422,-0.32246 L 3.79,105.61 a 0.652843,0.644918 0 0 1 0.652843,0.64492 z"
   class="st5"
   id="path45"
   inkscape:connector-curvature="0"
   style="fill:#e6e6e6;fill-opacity:0.5;stroke:none;stroke-width:34;stroke-linecap:butt" />
					</g>
				</g>
				<g
   id="group751-18"
   transform="translate(39.67,-4.08878)">
					<title
   id="title49">Sheet.751</title>
					<g
   id="shape752-19">
						<title
   id="title51">Sheet.752</title>
						<path
   d="m 4.45,105.61 v 1.45 a 0.652843,0.644918 0 0 1 -0.652843,0.64492 L 0.33,107.71 A 0.326422,0.322459 0 0 1 0.003578,107.38754 L 0,105.93 a 0.326422,0.322459 0 0 1 0.326422,-0.32246 z"
   class="st4"
   id="path53"
   inkscape:connector-curvature="0"
   style="fill:#e6e6e6;stroke:none;stroke-width:34;stroke-linecap:butt" />
					</g>
					<g
   id="shape753-21">
						<title
   id="title56">Sheet.753</title>
						<path
   d="m 4.45,105.61 v 1.45 a 0.652843,0.644918 0 0 1 -0.652843,0.64492 L 0.33,107.71 A 0.326422,0.322459 0 0 1 0.003578,107.38754 L 0,105.93 a 0.326422,0.322459 0 0 1 0.326422,-0.32246 z"
   class="st5"
   id="path58"
   inkscape:connector-curvature="0"
   style="fill:#e6e6e6;fill-opacity:0.5;stroke:none;stroke-width:34;stroke-linecap:butt" />
					</g>
				</g>
				<g
   id="shape754-23"
   transform="translate(42.0431,-4.08878)">
					<title
   id="title62">Sheet.754</title>
					<path
   d="M 1.43,107.71 H 0 V 88.52 h 1.43 a 0.652843,0.644918 0 0 1 0.652843,0.644918 L 2.08,107.07 a 0.652843,0.644918 0 0 1 -0.652843,0.64169 z"
   class="st3"
   id="path64"
   inkscape:connector-curvature="0"
   style="fill:#ffffff;stroke:none;stroke-width:34;stroke-linecap:butt" />
				</g>
				<g
   id="group755-25"
   transform="translate(12.577,-21.1759)">
					<title
   id="title67">Sheet.755</title>
					<g
   id="shape756-26">
						<title
   id="title69">Sheet.756</title>
						<path
   d="m 4.45,105.93 v 1.46 a 0.326422,0.322459 0 0 1 -0.326422,0.32246 L 0,107.71 v -1.46 a 0.652843,0.644918 0 0 1 0.652843,-0.64492 L 4.12,105.61 a 0.326422,0.322459 0 0 1 0.326422,0.32246 z"
   class="st4"
   id="path71"
   inkscape:connector-curvature="0"
   style="fill:#e6e6e6;stroke:none;stroke-width:34;stroke-linecap:butt" />
					</g>
					<g
   id="shape757-28">
						<title
   id="title74">Sheet.757</title>
						<path
   d="m 4.45,105.93 v 1.46 a 0.326422,0.322459 0 0 1 -0.326422,0.32246 L 0,107.71 v -1.46 a 0.652843,0.644918 0 0 1 0.652843,-0.64492 L 4.12,105.61 a 0.326422,0.322459 0 0 1 0.326422,0.32246 z"
   class="st5"
   id="path76"
   inkscape:connector-curvature="0"
   style="fill:#e6e6e6;fill-opacity:0.5;stroke:none;stroke-width:34;stroke-linecap:butt" />
					</g>
				</g>
				<g
   id="group758-30"
   transform="translate(12.577,-4.08878)">
					<title
   id="title80">Sheet.758</title>
					<g
   id="shape759-31">
						<title
   id="title82">Sheet.759</title>
						<path
   d="m 4.45,105.93 v 1.46 a 0.326422,0.322459 0 0 1 -0.326422,0.32246 L 0.65,107.71 a 0.652843,0.644918 0 0 1 -0.652843,-0.64492 L 0,105.61 h 4.12 a 0.326422,0.322459 0 0 1 0.326422,0.32246 z"
   class="st4"
   id="path84"
   inkscape:connector-curvature="0"
   style="fill:#e6e6e6;stroke:none;stroke-width:34;stroke-linecap:butt" />
					</g>
					<g
   id="shape760-33">
						<title
   id="title87">Sheet.760</title>
						<path
   d="m 4.45,105.93 v 1.46 a 0.326422,0.322459 0 0 1 -0.326422,0.32246 L 0.65,107.71 a 0.652843,0.644918 0 0 1 -0.652843,-0.64492 L 0,105.61 h 4.12 a 0.326422,0.322459 0 0 1 0.326422,0.32246 z"
   class="st5"
   id="path89"
   inkscape:connector-curvature="0"
   style="fill:#e6e6e6;fill-opacity:0.5;stroke:none;stroke-width:34;stroke-linecap:butt" />
					</g>
				</g>
				<g
   id="shape761-35"
   transform="translate(12.5705,-4.08878)">
					<title
   id="title93">Sheet.761</title>
					<path
   d="m 0.65,88.52 h 1.42 v 19.19 H 0.65 a 0.652843,0.644918 0 0 1 -0.652843,-0.64492 L 0,89.16 a 0.652843,0.644918 0 0 1 0.652843,-0.641694 z"
   class="st3"
   id="path95"
   inkscape:connector-curvature="0"
   style="fill:#ffffff;stroke:none;stroke-width:34;stroke-linecap:butt" />
				</g>
			</g>
		</g>
	</g>
</svg>

<?xml version="1.0" encoding="UTF-8" standalone="no"?>
<!DOCTYPE svg PUBLIC "-//W3C//DTD SVG 1.1//EN" "http://www.w3.org/Graphics/SVG/1.1/DTD/svg11.dtd">
<!-- Generated by Microsoft Visio, SVG Export Test Base for Microsoft 365.svg Page-1 -->
<svg xmlns="http://www.w3.org/2000/svg" xmlns:xlink="http://www.w3.org/1999/xlink" xmlns:ev="http://www.w3.org/2001/xml-events"
		width="1.73185in" height="1.49595in" viewBox="0 0 124.693 107.708" xml:space="preserve" color-interpolation-filters="sRGB"
		class="st6">
	<style type="text/css">
	<![CDATA[
		.st1 {fill:url(#grad0-6);stroke:none;stroke-linecap:butt;stroke-width:34}
		.st2 {fill:url(#grad0-10);stroke:none;stroke-linecap:butt;stroke-width:34}
		.st3 {fill:#ffffff;stroke:none;stroke-linecap:butt;stroke-width:34}
		.st4 {fill:#e6e6e6;stroke:none;stroke-linecap:butt;stroke-width:34}
		.st5 {fill:#e6e6e6;fill-opacity:0.5;stroke:none;stroke-linecap:butt;stroke-width:34}
		.st6 {fill:none;fill-rule:evenodd;font-size:12px;overflow:visible;stroke-linecap:square;stroke-miterlimit:3}
	]]>
	</style>

	<defs id="Patterns_And_Gradients">
		<linearGradient id="grad0-6" x1="0" y1="0" x2="1" y2="0" gradientTransform="rotate(-90 0.5 0.5)">
			<stop offset="0" stop-color="#0078d4" stop-opacity="1"/>
			<stop offset="0.815" stop-color="#5ea0ef" stop-opacity="1"/>
		</linearGradient>
		<linearGradient id="grad0-10" x1="0" y1="0" x2="1" y2="0" gradientTransform="rotate(-90 0.5 0.5)">
			<stop offset="0" stop-color="#50e6ff" stop-opacity="1"/>
			<stop offset="1" stop-color="#9cebff" stop-opacity="1"/>
		</linearGradient>
	</defs>
	<g>
		<title>Page-1</title>
		<g id="group728-1" transform="translate(34,-34.0157)">
			<title>Test Base for Microsoft 365</title>
			<g id="group729-2">
				<title>Sheet.729</title>
				<g id="shape730-3">
					<title>Sheet.730</title>
					<path d="M56.69 95.28 A12.7304 12.5759 -180 0 0 45.65 83.18 A16.0534 15.8585 -180 0 0 29.11 68.02 A16.4745 16.2745
								 -180 0 0 13.36 78.62 A15.1982 15.0137 -180 0 0 0 93.07 A15.4234 15.2362 -180 0 0 15.96 107.71 C16.44
								 107.71 16.91 107.69 17.37 107.65 L43.22 107.65 A2.50039 2.47004 -180 0 0 43.9 107.55 A12.8871 12.7307
								 -180 0 0 56.69 95.28 Z" class="st1"/>
				</g>
				<g id="shape731-7" transform="translate(17.5909,-8.67092)">
					<title>Sheet.731</title>
					<path d="M20.8 107.71 L1 107.71 C0.37 107.71 0 106.71 0.35 106.2 L7.16 96.38 a0.767091 0.757779 -180 0 0 0.137097
								 -0.438544 L7.3 89.44 a0.391706 0.386951 -180 0 0 -0.391706 -0.386951 L6.56 89.05 a0.780148 0.770677
								 0 0 1 -0.783412 -0.770677 L5.77 87.94 a0.783412 0.773902 0 0 1 0.783412 -0.773902 L15.24 87.16 a0.783412
								 0.773902 0 0 1 0.783412 0.773902 L16.02 88.29 a0.780148 0.770677 0 0 1 -0.783412 0.770677 L14.87
								 89.06 a0.391706 0.386951 -180 0 0 -0.391706 0.386951 L14.48 95.95 a0.793205 0.783576 -180 0 0 0.137097
								 0.438544 L21.44 106.21 C21.8 106.71 21.43 107.71 20.8 107.71 Z" class="st2"/>
				</g>
				<g id="shape732-11" transform="translate(21.2442,-10.596)">
					<title>Sheet.732</title>
					<path d="M0.03 107.05 L4.94 99.97 A1.80838 1.78642 -180 0 0 5.26 98.97 L5.26 96.12 a0.571238 0.564303 0 0 1 0.558181
								 -0.564303 L8.61 95.55 a0.574502 0.567528 0 0 1 0.571238 0.564303 L9.18 99.16 A1.18817 1.17375 -180
								 0 0 9.39 99.84 L14.41 107.05 a0.427612 0.422421 0 0 1 -0.352535 0.661041 L0.38 107.71 a0.427612
								 0.422421 0 0 1 -0.352535 -0.661041 Z" class="st3"/>
				</g>
				<g id="group733-13" transform="translate(39.6733,-21.1759)">
					<title>Sheet.733</title>
					<g id="shape734-14">
						<title>Sheet.734</title>
						<path d="M4.45 106.25 L4.45 107.71 L0.33 107.71 a0.326422 0.322459 0 0 1 -0.326422 -0.322459 L0 105.93 a0.326422
									 0.322459 0 0 1 0.326422 -0.322459 L3.79 105.61 a0.652843 0.644918 0 0 1 0.652843 0.644918 Z"
								class="st4"/>
					</g>
					<g id="shape735-16">
						<title>Sheet.735</title>
						<path d="M4.45 106.25 L4.45 107.71 L0.33 107.71 a0.326422 0.322459 0 0 1 -0.326422 -0.322459 L0 105.93 a0.326422
									 0.322459 0 0 1 0.326422 -0.322459 L3.79 105.61 a0.652843 0.644918 0 0 1 0.652843 0.644918 Z"
								class="st5"/>
					</g>
				</g>
				<g id="group736-18" transform="translate(39.67,-4.08878)">
					<title>Sheet.736</title>
					<g id="shape737-19">
						<title>Sheet.737</title>
						<path d="M4.45 105.61 L4.45 107.06 a0.652843 0.644918 0 0 1 -0.652843 0.644918 L0.33 107.71 a0.326422 0.322459
									 0 0 1 -0.326422 -0.322459 L0 105.93 a0.326422 0.322459 0 0 1 0.326422 -0.322459 L4.45 105.61
									 Z" class="st4"/>
					</g>
					<g id="shape738-21">
						<title>Sheet.738</title>
						<path d="M4.45 105.61 L4.45 107.06 a0.652843 0.644918 0 0 1 -0.652843 0.644918 L0.33 107.71 a0.326422 0.322459
									 0 0 1 -0.326422 -0.322459 L0 105.93 a0.326422 0.322459 0 0 1 0.326422 -0.322459 L4.45 105.61
									 Z" class="st5"/>
					</g>
				</g>
				<g id="shape739-23" transform="translate(42.0431,-4.08878)">
					<title>Sheet.739</title>
					<path d="M1.43 107.71 L0 107.71 L0 88.52 L1.43 88.52 a0.652843 0.644918 0 0 1 0.652843 0.644918 L2.08 107.07
								 a0.652843 0.644918 0 0 1 -0.652843 0.641694 Z" class="st3"/>
				</g>
				<g id="group740-25" transform="translate(12.577,-21.1759)">
					<title>Sheet.740</title>
					<g id="shape741-26">
						<title>Sheet.741</title>
						<path d="M4.45 105.93 L4.45 107.39 a0.326422 0.322459 0 0 1 -0.326422 0.322459 L0 107.71 L0 106.25 a0.652843
									 0.644918 0 0 1 0.652843 -0.644918 L4.12 105.61 a0.326422 0.322459 0 0 1 0.326422 0.322459 Z"
								class="st4"/>
					</g>
					<g id="shape742-28">
						<title>Sheet.742</title>
						<path d="M4.45 105.93 L4.45 107.39 a0.326422 0.322459 0 0 1 -0.326422 0.322459 L0 107.71 L0 106.25 a0.652843
									 0.644918 0 0 1 0.652843 -0.644918 L4.12 105.61 a0.326422 0.322459 0 0 1 0.326422 0.322459 Z"
								class="st5"/>
					</g>
				</g>
				<g id="group743-30" transform="translate(12.577,-4.08878)">
					<title>Sheet.743</title>
					<g id="shape744-31">
						<title>Sheet.744</title>
						<path d="M4.45 105.93 L4.45 107.39 a0.326422 0.322459 0 0 1 -0.326422 0.322459 L0.65 107.71 a0.652843 0.644918
									 0 0 1 -0.652843 -0.644918 L0 105.61 L4.12 105.61 a0.326422 0.322459 0 0 1 0.326422 0.322459
									 Z" class="st4"/>
					</g>
					<g id="shape745-33">
						<title>Sheet.745</title>
						<path d="M4.45 105.93 L4.45 107.39 a0.326422 0.322459 0 0 1 -0.326422 0.322459 L0.65 107.71 a0.652843 0.644918
									 0 0 1 -0.652843 -0.644918 L0 105.61 L4.12 105.61 a0.326422 0.322459 0 0 1 0.326422 0.322459
									 Z" class="st5"/>
					</g>
				</g>
				<g id="shape746-35" transform="translate(12.5705,-4.08878)">
					<title>Sheet.746</title>
					<path d="M0.65 88.52 L2.07 88.52 L2.07 107.71 L0.65 107.71 a0.652843 0.644918 0 0 1 -0.652843 -0.644918 L0 89.16
								 a0.652843 0.644918 0 0 1 0.652843 -0.641694 Z" class="st3"/>
				</g>
			</g>
		</g>
	</g>
</svg>
